X:1
T:Title
%%score 1 { ( 2 5 ) | ( 3 4 ) }
L:1/8
Q:1/4=92
M:3/4
K:Db
V:1 treble nm="Akkordion"
V:2 treble nm="Grand Piano"
V:5 treble 
V:3 bass 
V:4 bass 
V:1
 A3 B AG | F3 A, DG | F3 E A,E | D6 | d3 e fd | A3 B AD | F3 D FE | %7
w: E.~O.~Excell * * *|||||||
[M:13/16] EA/-A/-A/-A-<A z/ z/ z |[M:3/4] A3 B AG | F3 A, DG | F3 E A,E | D6 | d3 e fd | A3 B AD | %14
w: |||||||
 F3 E A,E | D6 | A3 B AB | A3 B AB | A3 d Ad | e2 A4 | f3 e dF | A3 B AD | F3 E A,E | D6 | %24
w: ||||||||||
 A3 B AB | A3 B AB | A3 d Ad | e2 A4 | f3 e dF | A3 B AD | F3 E A,E | D6 |] %32
w: ||||||||
V:2
 FF FG [DF]E | z2 z2 D2 | z2 C2[K:bass] z2 | DB, A,2 z2 | FF FG AF | FF FG FD | DD D2 D2 | %7
[M:13/16] CCCG3/2 z/ z/ z |[M:3/4] FF FG [DF]E | z2 z2 D2 | z2 C2[K:bass] z2 | DB, A,2 z2 | %12
 FF FG AF | FF FG FD | z2 C2[K:bass] z2 | DB, A,2 z2 | FF F2 F2 | GG G2 G2 | AA A2 A2 | %19
 A=G _G2 z2 | AA AG FD | FF FG FD | z2 C2[K:bass] z2 | DB, A,2 z2 | FF F2 F2 | GG G2 G2 | %26
 AA A2 A2 | A=G _G2 z2 | AA AG FD | FF FG FD | z2 C2[K:bass] z2 | DB, A,2 z2 |] %32
V:3
 [D,A,][D,A,] A,D z A, | [D,A,][D,A,] A,F, .[D,F,]2 | [A,,A,][A,,A,] .[A,,A,]2 [A,,G,]2 | %3
 [D,F,][D,G,] [D,F,]2 z2 | [D,A,][D,A,] [D,A,]2 [D,A,]2 | [D,A,][D,A,] [D,A,]2 A,F, | %6
 [B,,F,][B,,F,] [B,,F,]2 [B,,=G,]2 |[M:13/16] [A,,A,][A,,A,][A,,A,]/-[A,,A,]-<[A,,A,] z/ z/ z | %8
[M:3/4] [D,A,][D,A,] A,D z A, | [D,A,][D,A,] A,F, .[D,F,]2 | [A,,A,][A,,A,] .[A,,A,]2 [A,,G,]2 | %11
 [D,F,][D,G,] [D,F,]2 z2 | [D,A,][D,A,] [D,A,]2 [D,A,]2 | [D,A,][D,A,] [D,A,]2 A,F, | %14
 [A,,A,][A,,A,] .[A,,A,]2 [A,,G,]2 | [D,F,][D,G,] [D,F,]2 z2 | [D,A,][D,A,] [D,A,]2 [D,A,]2 | %17
 [E,C][E,C] [E,C]2 [E,C]2 | [F,D][F,D] [F,D]2 [F,D]2 | [A,C][B,D] [CE]2 z2 | %20
 [D,D][D,D] DA, [D,A,]2 | [D,A,][D,A,] [D,A,]2 A,F, | [A,,A,][A,,A,] .[A,,A,]2 [A,,G,]2 | %23
 [D,F,][D,G,] [D,F,]2 z2 | [D,A,][D,A,] [D,A,]2 [D,A,]2 | [E,C][E,C] [E,C]2 [E,C]2 | %26
 [F,D][F,D] [F,D]2 [F,D]2 | [A,C][B,D] [CE]2 z2 | [D,D][D,D] DA, [D,A,]2 | %29
 [D,A,][D,A,] [D,A,]2 A,F, | [A,,A,][A,,A,] .[A,,A,]2 [A,,G,]2 | [D,F,][D,G,] [D,F,]2 z2 |] %32
V:4
 z2 D,2 D,2 | z2 D,2 z2 | x6 | x6 | x6 | z2 z2 D,2 | x6 |[M:13/16] x13/2 |[M:3/4] z2 D,2 D,2 | %9
 z2 D,2 z2 | x6 | x6 | x6 | z2 z2 D,2 | x6 | x6 | x6 | x6 | x6 | x6 | z2 D,2 z2 | z2 z2 D,2 | x6 | %23
 x6 | x6 | x6 | x6 | x6 | z2 D,2 z2 | z2 z2 D,2 | x6 | x6 |] %32
V:5
 x6 | DD DA, z B, | CC z[K:bass] G, C2 | x6 | x6 | x6 | x6 |[M:13/16] x13/2 |[M:3/4] x6 | %9
 DD DA, z B, | CC z[K:bass] G, C2 | x6 | x6 | x6 | CC z[K:bass] G, C2 | x6 | x6 | x6 | x6 | x6 | %20
 x6 | x6 | CC z[K:bass] G, C2 | x6 | x6 | x6 | x6 | x6 | x6 | x6 | CC z[K:bass] G, C2 | x6 |] %32

